X:1
T:The First Christmas Song
T:Isaac Hickman Meredith
T:The First Christmas Song
T:Public Domain
T:Public Domain
T:Public Domain
C:Isaac Hickman Meredith
Z:Public Domain
%%score ( 1 2 ) 3
L:1/8
M:6/8
K:F
V:1 treble 
V:2 treble 
V:3 bass 
V:1
 [FA][CG][CF] [Fc]2 [Fd] | [Fc]3 [FA]3 | [FA][Fc][FB] [FA]2 [EG] | [CF]3- [CF]2 z | %4
w: 1.~Beau- ti- ful song of|Christ- mas!|Sung in the long a-|go, *|
w: 2.~Beau- ti- ful song of|Christ- mas,|Mess- age of peace, good|will, *|
w: 3.~Beau- ti- ful song of|Christ- mas—|Rings in each heart to-|day, *|
 [DF][^CE][DF] (B^c)[Fd] | [Fc]3 [FA]3 | [EG][^D^F][EG] [Ge]2 [=F=d] | [Ec]3- [Ec]2 z | %8
w: Bring- ing the joy * of|en, Down|to the earth be- low.|Sto- *|
w: Sung first by an- * gel|us, Sweet-|ly it e- choes still.|Pro- *|
w: Tell- ing of Christ, * the|ior, Driv-|ing the gloom a- way.|Age, *|
 [GB][GB][GB] ([Bd][Ac])[GB] | [FA]3 [Ac]3 | [GB][GB][GB] ([Bd][Ac])[GB] | [FA]3- [FA]2 z | %12
w: ry of deep- est * mean-|ing, Burst|forth in mu- sic * sweet,|While *|
w: phets of Christ had * spok-|en, Hope|long de- ferred grew * dim,|Till *|
w: with her sil- ver * tress-|es, Youth,|with her smile and * song,|Join *|
 [FA][FA][FA] [FA]2 [FA] | [FB]3 [F=B]3 | [Fc][FA][CF] [FA]2 [EG] | [CF]3- [CF]2 z || %16
w: from a- far the wise|men Ga-|thered at Je- sus’ feet.||
w: from the glow- ing heav-|ens, An-|gels now told of Him.|Blend *|
w: in the theme of ag-|es, With|the glad an- gel throng.||
"^Refrain" (z [FA][FA]) (z [_EA][EA]) | z [EB][EB] [EB][Ece][DBd] | z [EB][EB] (z [CE][CE]) | %19
w: |||
w: |* * * voice in||
w: |||
 z [CF][CF] z [CF][DF] | z [CF][CF] (z [CF][CF]) | (z [CE][CE] [G,G])[CEc][EGe] | [EGe]3 [DFd]3 | %23
w: ||||
w: ||* * * your gifts|* the|
w: ||||
 [CEc]6 | (z [FA][FA]) (z [_EA][EA]) | (z [EB][EB] [Cc])[Ece][DBd] | z [EB][EB] (z [EB][EB]) | %27
w: ||||
w: Sav-||* * * Let each||
w: ||||
 z [CF][CF] z [CF][CF] | x6 | z [FA][FA] (z [GA][GA]) | edA cBF | (z C[A,CF]) (z B,[B,CE]) | %32
w: |||||
w: |||* es ring Pay your hom-||
w: |||||
 z [A,C][A,C] [A,CF]2 z |] %33
w: |
w: sus, our Prince|
w: |
V:2
 x6 | x6 | x6 | x6 | x3 F2 x | x6 | x6 | x6 | x6 | x6 | x6 | x6 | x6 | x6 | x6 | x6 || %16
w: ||||Heav-||||||||||||
w: ||||chor-||||||||||||
w: ||||Sav-||||||||||||
 [Cc]3 [Cc]3 | [Cc]3 x3 | [Cc]3 [B,d]3 | [A,A-]3 [A,A]3 | [A,A]3 [_A,_A]3 | [A,G]3 x3 | x6 | x6 | %24
w: ||||||||
w: your *|the|song *|so *|sweet, Bring|to|||
w: ||||||||
 [Cc]3 [Cc]3 | [Cc]3 x3 | [Cc]3 [B,c]3 | [A,A]3- [A,A]3 | x6 | [Cc]3 [^C^c]3 | [FA]2 [DG]2 x2 | %31
w: |||||||
w: ior’s feet.|heart|with *|His *||prais- *|age to|
w: |||||||
 A3 G3 | F3- x3 |] %33
w: ||
w: Je- *|and|
w: ||
V:3
 [F,C][F,B,][F,A,] [F,A,]2 [F,B,] | [F,A,]3 [F,C]3 | [F,C][A,,C][B,,D] [C,C]2 [C,B,] | %3
 [F,A,]3- [F,A,]2 z | [B,,B,][B,,B,][B,,B,] ([D,B,][C,A,])[B,,B,] | [F,A,]3 [F,C]3 | %6
 [G,C][G,C][G,C] [G,=B,]2 [G,B,] | [C,C]3- [C,C]2 z | G,B,C (EC)B, | (F,A,C) (FCA,) | %10
 G,B,C (EC)B, | (F,A,C FCA,) | [F,C][F,C][F,C] [_E,C]2 [E,C] | [D,B,]3 [_D,^G,]3 | %14
 [C,A,][C,C][C,A,] [C,C]2 [C,B,] | [F,A,]3- [F,A,]2 z || [F,,F,]3 [^F,,^F,]3 | [G,,G,]3 [C,,C,]3 | %18
 [G,,G,]3 [C,,C,]3 | [F,,F,]3 [C,,C,]3 | [F,,F,]3 [F,,F,]3 | [G,,G,]3 [G,,G,]3 | %22
 (G,,G,A,) (=B,A,G,) | (C,G,A, B,A,G,) | [F,,F,]3 [^F,,^F,]3 | [G,,G,]3 [C,,C,]3 | %26
 [G,,G,]3 [C,,C,]3 | [F,,F,]3 [C,,C,]3 | [G,,F,]3 [E,,E,]3 | [D,,D,]3 [G,,G,]3 | C,,3 C,,3 | %31
 (F,C,A,, [F,,F,]2) z | x6 |] %33

